Newaita-dark/apps/16/cs-overview.svg

<svg height="16" viewBox="0 0 16 16" width="16" xmlns="http://www.w3.org/2000/svg" xmlns:xlink="http://www.w3.org/1999/xlink"><linearGradient id="a" gradientUnits="userSpaceOnUse" x1="7.607496" x2="7.607496" y1="14.0169675" y2="14.67848950002"><stop offset="0" stop-opacity=".27451"/><stop offset="1" stop-opacity="0"/></linearGradient><linearGradient id="b"><stop offset="0" stop-opacity=".313726"/><stop offset=".222222" stop-opacity=".27451"/><stop offset="1" stop-opacity="0"/></linearGradient><radialGradient id="c" cx="450.908936" cy="189.579361" gradientTransform="matrix(.00000009 -.0390662 -.0703192 -.00000005 26.726844 31.797666)" gradientUnits="userSpaceOnUse" r="21.166656" xlink:href="#b"/><radialGradient id="d" cx="450.908936" cy="189.579361" gradientTransform="matrix(-.00000009 .0390662 .0703192 .00000005 -10.850327 -3.763739)" gradientUnits="userSpaceOnUse" r="21.166656" xlink:href="#b"/><radialGradient id="e" cx="450.908936" cy="189.579361" gradientTransform="matrix(-.00000009 -.0390662 .0703192 -.00000005 -10.850327 31.797666)" gradientUnits="userSpaceOnUse" r="21.166656" xlink:href="#b"/><radialGradient id="f" cx="450.908936" cy="189.579361" gradientTransform="matrix(.00000009 .0390662 -.0703192 .00000005 26.726843 -3.76374)" gradientUnits="userSpaceOnUse" r="21.166656" xlink:href="#b"/><linearGradient id="g"><stop offset="0" stop-color="#b0bec5"/><stop offset="1" stop-color="#cfd8dc"/></linearGradient><linearGradient id="h" gradientTransform="matrix(.0360368 0 0 .0953132 -2.454603 15.588246)" gradientUnits="userSpaceOnUse" x1="306.752655" x2="305.954529" xlink:href="#g" y1="-16.485477" y2="-141.414581"/><linearGradient id="i" gradientUnits="userSpaceOnUse" x1="7.938262" x2="7.938262" y1="14.0169675" y2="2.1095745"><stop offset="0" stop-color="#5c6bc0"/><stop offset="1" stop-color="#7986cb"/></linearGradient><linearGradient id="j" gradientUnits="userSpaceOnUse" x1="6.94597925" x2="6.94597925" xlink:href="#g" y1="14.0169675" y2="2.1095745"/><linearGradient id="k" gradientTransform="matrix(-.031253 0 0 -.031253 15.876515 9.394899)" gradientUnits="userSpaceOnUse" x1="169.333313" x2="158.749985" xlink:href="#g" y1="-147.891953" y2="233.108047"/><path d="m2.316406 14.054688h11.246094v.625h-11.246094zm0 0" fill="url(#a)"/><path d="m13.5625 14.015625h1.320312v-.660156h-1.320312zm0 0" fill="url(#c)"/><path d="m2.316406 14.015625h-1.324218v.664063h1.324218zm0 0" fill="url(#d)"/><path d="m2.316406 14.015625h-1.324218v-.660156h1.324218zm0 0" fill="url(#e)"/><path d="m13.5625 14.015625h1.320312v.664063h-1.320312zm0 0" fill="url(#f)"/><path d="m1.652344 2.109375h12.570312c.367188 0 .660156.28125.660156.625v10.65625c0 .347656-.292968.625-.660156.625h-12.570312c-.363282 0-.660156-.277344-.660156-.625v-10.65625c0-.34375.296874-.625.660156-.625zm0 0" fill="url(#h)"/><path d="m1.984375 2.769531h11.90625c.183594 0 .332031.148438.332031.332031v9.921876c0 .183593-.148437.332031-.332031.332031h-11.90625c-.183594 0-.332031-.148438-.332031-.332031v-9.921876c0-.183593.148437-.332031.332031-.332031zm0 0" fill="url(#i)"/><path d="m1.652344 2.109375c-.363282 0-.660156.277344-.660156.625v.164063c0-.34375.296874-.625.660156-.625h12.570312c.367188 0 .660156.28125.660156.625v-.164063c0-.347656-.292968-.625-.660156-.625zm0 0" fill="#fff" fill-opacity=".588235"/><path d="m1.652344 14.023438c-.363282 0-.660156-.28125-.660156-.625v-.167969c0 .347656.296874.625.660156.625h12.570312c.367188 0 .660156-.277344.660156-.625v.167969c0 .34375-.292968.625-.660156.625zm0 0" fill-opacity=".235294"/><path d="m52.869951-147.506445h402.211591c11.748878 0 21.122983 8.99914 21.122983 19.99809v340.967439c0 11.123938-9.374105 19.99809-21.122983 19.99809h-402.211591c-11.62389 0-21.122983-8.874152-21.122983-19.99809v-340.967439c0-10.99895 9.499093-19.99809 21.122983-19.99809zm0 0" fill="none" stroke="#212121" stroke-linecap="round" stroke-width="3" transform="matrix(.031253 0 0 .031253 0 6.719392)"/><path d="m1.984375 2.8125c-.183594 0-.332031.148438-.332031.332031v.121094c0-.179687.148437-.328125.332031-.328125h11.90625c.183594 0 .332031.148438.332031.328125v-.121094c0-.183593-.148437-.332031-.332031-.332031zm0 0" fill-opacity=".235294"/><path d="m1.984375 13.523438c-.183594 0-.332031-.148438-.332031-.328126v-.125c0 .183594.148437.328126.332031.328126h11.90625c.183594 0 .332031-.144532.332031-.328126v.125c0 .179688-.148437.328126-.332031.328126zm0 0" fill="#fff" fill-opacity=".588235"/><path d="m63.493937-126.383462h380.963619c5.874439 0 10.623986 4.749546 10.623986 10.623985v317.469683c0 5.874439-4.749547 10.623986-10.623986 10.623986h-380.963619c-5.874439 0-10.623986-4.749547-10.623986-10.623986v-317.469683c0-5.874439 4.749547-10.623985 10.623986-10.623985zm0 0" fill="none" stroke="#212121" stroke-linecap="round" stroke-linejoin="round" stroke-width="3" transform="matrix(.031253 0 0 .031253 0 6.719392)"/><path d="m1.984375 2.769531c-.183594 0-.332031.148438-.332031.332031v2.683594c3.695312-.460937 7.546875-.707031 11.511718-.707031.355469 0 .707032.003906 1.058594.007813v-1.984376c0-.183593-.148437-.332031-.332031-.332031zm0 0" fill="#fff" fill-opacity=".078431"/><path d="m2.316406 3.089844c-.191406 0-.34375.152344-.34375.34375v4.289062c0 .195313.167969.355469.367188.339844 2.46875-.171875 4.433594-2.136719 4.605468-4.605469.015626-.199219-.144531-.367187-.339843-.367187zm0 0" fill="url(#j)"/><path d="m2.316406 3.089844c-.191406 0-.34375.152344-.34375.34375v.097656c0-.1875.152344-.339844.34375-.339844h4.289063c.171875 0 .316406.128906.339843.292969 0-.007813 0-.019531 0-.027344.015626-.199219-.144531-.367187-.339843-.367187zm0 0" fill="#fff" fill-opacity=".588235"/><path d="m6.941406 3.507812c-.195312 2.445313-2.152344 4.382813-4.601562 4.554688-.199219.015625-.367188-.144531-.367188-.339844v.128906c0 .199219.167969.355469.367188.34375 2.46875-.175781 4.433594-2.140624 4.605468-4.609374.003907-.027344 0-.054688-.003906-.078126zm0 0" fill-opacity=".235294"/><path d="m74.117922-116.134441c-6.124415 0-10.99895 4.874534-10.99895 10.998949v137.236895c0 6.249403 5.374487 11.373914 11.748878 10.873962 78.992457-5.499475 141.861453-68.368472 147.360928-147.360928.499952-6.374391-4.624558-11.748878-10.873961-11.748878zm0 0" fill="none" stroke="#212121" stroke-linecap="round" stroke-linejoin="round" stroke-width="3" transform="matrix(.031253 0 0 .031253 0 6.719392)"/><path d="m13.5625 13.023438c.1875 0 .339844-.152344.339844-.339844v-4.289063c0-.199219-.167969-.355469-.363282-.34375-2.46875.171875-4.4375 2.140625-4.609374 4.605469-.011719.199219.144531.367188.34375.367188zm0 0" fill="url(#k)"/><path d="m13.554688 8.050781c-.003907 0-.011719 0-.015626 0-2.46875.171875-4.4375 2.140625-4.609374 4.605469 0 .027344 0 .050781.003906.074219.1875-2.453125 2.144531-4.40625 4.605468-4.578125.195313-.011719.363282.144531.363282.34375v-.101563c0-.195312-.15625-.347656-.347656-.34375zm0 0" fill="#fff" fill-opacity=".588235"/><path d="m13.902344 12.683594c0 .1875-.152344.339844-.339844.339844h-4.289062c-.171876 0-.3125-.125-.339844-.289063 0 .015625 0 .03125-.003906.046875-.011719.199219.144531.367188.34375.367188h4.289062c.1875 0 .339844-.152344.339844-.34375zm0 0" fill-opacity=".235294"/><path d="m433.958559 201.710206c5.999427 0 10.873962-4.874534 10.873962-10.873961v-137.236895c0-6.374391-5.374487-11.373914-11.62389-10.99895-78.992457 5.499475-141.986441 68.49346-147.485916 147.360928-.374964 6.374391 4.624558 11.748878 10.998949 11.748878zm0 0" fill="none" stroke="#212121" stroke-linecap="round" stroke-linejoin="round" stroke-width="3" transform="matrix(.031253 0 0 .031253 0 6.719392)"/></svg>

<?xml version="1.0" encoding="UTF-8"?>
<svg xmlns="http://www.w3.org/2000/svg" xmlns:xlink="http://www.w3.org/1999/xlink" width="16px" height="16px" viewBox="0 0 16 16" version="1.1">
<defs>
<linearGradient id="linear0" gradientUnits="userSpaceOnUse" x1="254" y1="233.5" x2="254" y2="254.666672" gradientTransform="matrix(0.031253,0,0,0.031253,-0.330766,6.719392)">
<stop offset="0" style="stop-color:rgb(0%,0%,0%);stop-opacity:0.27451;"/>
<stop offset="1" style="stop-color:rgb(0%,0%,0%);stop-opacity:0;"/>
</linearGradient>
<radialGradient id="radial0" gradientUnits="userSpaceOnUse" cx="450.908936" cy="189.579361" fx="450.908936" fy="189.579361" r="21.166656" gradientTransform="matrix(0.0000000870852,-0.0390662,-0.0703192,-0.0000000507693,26.726844,31.797666)">
<stop offset="0" style="stop-color:rgb(0%,0%,0%);stop-opacity:0.313726;"/>
<stop offset="0.222222" style="stop-color:rgb(0%,0%,0%);stop-opacity:0.27451;"/>
<stop offset="1" style="stop-color:rgb(0%,0%,0%);stop-opacity:0;"/>
</radialGradient>
<radialGradient id="radial1" gradientUnits="userSpaceOnUse" cx="450.908936" cy="189.579361" fx="450.908936" fy="189.579361" r="21.166656" gradientTransform="matrix(-0.0000000870852,0.0390662,0.0703192,0.0000000507693,-10.850327,-3.763739)">
<stop offset="0" style="stop-color:rgb(0%,0%,0%);stop-opacity:0.313726;"/>
<stop offset="0.222222" style="stop-color:rgb(0%,0%,0%);stop-opacity:0.27451;"/>
<stop offset="1" style="stop-color:rgb(0%,0%,0%);stop-opacity:0;"/>
</radialGradient>
<radialGradient id="radial2" gradientUnits="userSpaceOnUse" cx="450.908936" cy="189.579361" fx="450.908936" fy="189.579361" r="21.166656" gradientTransform="matrix(-0.0000000870852,-0.0390662,0.0703192,-0.0000000507693,-10.850327,31.797666)">
<stop offset="0" style="stop-color:rgb(0%,0%,0%);stop-opacity:0.313726;"/>
<stop offset="0.222222" style="stop-color:rgb(0%,0%,0%);stop-opacity:0.27451;"/>
<stop offset="1" style="stop-color:rgb(0%,0%,0%);stop-opacity:0;"/>
</radialGradient>
<radialGradient id="radial3" gradientUnits="userSpaceOnUse" cx="450.908936" cy="189.579361" fx="450.908936" fy="189.579361" r="21.166656" gradientTransform="matrix(0.0000000870852,0.0390662,-0.0703192,0.0000000507693,26.726843,-3.76374)">
<stop offset="0" style="stop-color:rgb(0%,0%,0%);stop-opacity:0.313726;"/>
<stop offset="0.222222" style="stop-color:rgb(0%,0%,0%);stop-opacity:0.27451;"/>
<stop offset="1" style="stop-color:rgb(0%,0%,0%);stop-opacity:0;"/>
</radialGradient>
<linearGradient id="linear1" gradientUnits="userSpaceOnUse" x1="306.752655" y1="-16.485477" x2="305.954529" y2="-141.414581" gradientTransform="matrix(0.0360368,0,0,0.0953132,-2.454603,15.588246)">
<stop offset="0" style="stop-color:rgb(69.01961%,74.509805%,77.254903%);stop-opacity:1;"/>
<stop offset="1" style="stop-color:rgb(81.176472%,84.705883%,86.274511%);stop-opacity:1;"/>
</linearGradient>
<linearGradient id="linear2" gradientUnits="userSpaceOnUse" x1="254" y1="233.5" x2="254" y2="-147.5" gradientTransform="matrix(0.031253,0,0,0.031253,0,6.719392)">
<stop offset="0" style="stop-color:rgb(36.078432%,41.960785%,75.294119%);stop-opacity:1;"/>
<stop offset="1" style="stop-color:rgb(47.450981%,52.549022%,79.607844%);stop-opacity:1;"/>
</linearGradient>
<linearGradient id="linear3" gradientUnits="userSpaceOnUse" x1="222.25" y1="233.5" x2="222.25" y2="-147.5" gradientTransform="matrix(0.031253,0,0,0.031253,0,6.719392)">
<stop offset="0" style="stop-color:rgb(69.01961%,74.509805%,77.254903%);stop-opacity:1;"/>
<stop offset="1" style="stop-color:rgb(81.176472%,84.705883%,86.274511%);stop-opacity:1;"/>
</linearGradient>
<linearGradient id="linear4" gradientUnits="userSpaceOnUse" x1="169.333313" y1="-147.891953" x2="158.749985" y2="233.108047" gradientTransform="matrix(-0.031253,0.000000000000000004,-0.000000000000000004,-0.031253,15.876515,9.394899)">
<stop offset="0" style="stop-color:rgb(69.01961%,74.509805%,77.254903%);stop-opacity:1;"/>
<stop offset="1" style="stop-color:rgb(81.176472%,84.705883%,86.274511%);stop-opacity:1;"/>
</linearGradient>
</defs>
<g id="surface1">
<path style=" stroke:none;fill-rule:nonzero;fill:url(#linear0);" d="M 2.316406 14.054688 L 13.5625 14.054688 L 13.5625 14.679688 L 2.316406 14.679688 Z M 2.316406 14.054688 "/>
<path style=" stroke:none;fill-rule:nonzero;fill:url(#radial0);" d="M 13.5625 14.015625 L 14.882812 14.015625 L 14.882812 13.355469 L 13.5625 13.355469 Z M 13.5625 14.015625 "/>
<path style=" stroke:none;fill-rule:nonzero;fill:url(#radial1);" d="M 2.316406 14.015625 L 0.992188 14.015625 L 0.992188 14.679688 L 2.316406 14.679688 Z M 2.316406 14.015625 "/>
<path style=" stroke:none;fill-rule:nonzero;fill:url(#radial2);" d="M 2.316406 14.015625 L 0.992188 14.015625 L 0.992188 13.355469 L 2.316406 13.355469 Z M 2.316406 14.015625 "/>
<path style=" stroke:none;fill-rule:nonzero;fill:url(#radial3);" d="M 13.5625 14.015625 L 14.882812 14.015625 L 14.882812 14.679688 L 13.5625 14.679688 Z M 13.5625 14.015625 "/>
<path style=" stroke:none;fill-rule:nonzero;fill:url(#linear1);" d="M 1.652344 2.109375 L 14.222656 2.109375 C 14.589844 2.109375 14.882812 2.390625 14.882812 2.734375 L 14.882812 13.390625 C 14.882812 13.738281 14.589844 14.015625 14.222656 14.015625 L 1.652344 14.015625 C 1.289062 14.015625 0.992188 13.738281 0.992188 13.390625 L 0.992188 2.734375 C 0.992188 2.390625 1.289062 2.109375 1.652344 2.109375 Z M 1.652344 2.109375 "/>
<path style=" stroke:none;fill-rule:nonzero;fill:url(#linear2);" d="M 1.984375 2.769531 L 13.890625 2.769531 C 14.074219 2.769531 14.222656 2.917969 14.222656 3.101562 L 14.222656 13.023438 C 14.222656 13.207031 14.074219 13.355469 13.890625 13.355469 L 1.984375 13.355469 C 1.800781 13.355469 1.652344 13.207031 1.652344 13.023438 L 1.652344 3.101562 C 1.652344 2.917969 1.800781 2.769531 1.984375 2.769531 Z M 1.984375 2.769531 "/>
<path style=" stroke:none;fill-rule:nonzero;fill:rgb(100%,100%,100%);fill-opacity:0.588235;" d="M 1.652344 2.109375 C 1.289062 2.109375 0.992188 2.386719 0.992188 2.734375 L 0.992188 2.898438 C 0.992188 2.554688 1.289062 2.273438 1.652344 2.273438 L 14.222656 2.273438 C 14.589844 2.273438 14.882812 2.554688 14.882812 2.898438 L 14.882812 2.734375 C 14.882812 2.386719 14.589844 2.109375 14.222656 2.109375 Z M 1.652344 2.109375 "/>
<path style=" stroke:none;fill-rule:nonzero;fill:rgb(0%,0%,0%);fill-opacity:0.235294;" d="M 1.652344 14.023438 C 1.289062 14.023438 0.992188 13.742188 0.992188 13.398438 L 0.992188 13.230469 C 0.992188 13.578125 1.289062 13.855469 1.652344 13.855469 L 14.222656 13.855469 C 14.589844 13.855469 14.882812 13.578125 14.882812 13.230469 L 14.882812 13.398438 C 14.882812 13.742188 14.589844 14.023438 14.222656 14.023438 Z M 1.652344 14.023438 "/>
<path style="fill:none;stroke-width:3;stroke-linecap:round;stroke-linejoin:miter;stroke:rgb(12.941177%,12.941177%,12.941177%);stroke-opacity:1;stroke-miterlimit:4;" d="M 52.869951 -147.506445 L 455.081542 -147.506445 C 466.83042 -147.506445 476.204525 -138.507305 476.204525 -127.508355 L 476.204525 213.459084 C 476.204525 224.583022 466.83042 233.457174 455.081542 233.457174 L 52.869951 233.457174 C 41.246061 233.457174 31.746968 224.583022 31.746968 213.459084 L 31.746968 -127.508355 C 31.746968 -138.507305 41.246061 -147.506445 52.869951 -147.506445 Z M 52.869951 -147.506445 " transform="matrix(0.031253,0,0,0.031253,0,6.719392)"/>
<path style=" stroke:none;fill-rule:nonzero;fill:rgb(0%,0%,0%);fill-opacity:0.235294;" d="M 1.984375 2.8125 C 1.800781 2.8125 1.652344 2.960938 1.652344 3.144531 L 1.652344 3.265625 C 1.652344 3.085938 1.800781 2.9375 1.984375 2.9375 L 13.890625 2.9375 C 14.074219 2.9375 14.222656 3.085938 14.222656 3.265625 L 14.222656 3.144531 C 14.222656 2.960938 14.074219 2.8125 13.890625 2.8125 Z M 1.984375 2.8125 "/>
<path style=" stroke:none;fill-rule:nonzero;fill:rgb(100%,100%,100%);fill-opacity:0.588235;" d="M 1.984375 13.523438 C 1.800781 13.523438 1.652344 13.375 1.652344 13.195312 L 1.652344 13.070312 C 1.652344 13.253906 1.800781 13.398438 1.984375 13.398438 L 13.890625 13.398438 C 14.074219 13.398438 14.222656 13.253906 14.222656 13.070312 L 14.222656 13.195312 C 14.222656 13.375 14.074219 13.523438 13.890625 13.523438 Z M 1.984375 13.523438 "/>
<path style="fill:none;stroke-width:3;stroke-linecap:round;stroke-linejoin:round;stroke:rgb(12.941177%,12.941177%,12.941177%);stroke-opacity:1;stroke-miterlimit:4;" d="M 63.493937 -126.383462 L 444.457556 -126.383462 C 450.331995 -126.383462 455.081542 -121.633916 455.081542 -115.759477 L 455.081542 201.710206 C 455.081542 207.584645 450.331995 212.334192 444.457556 212.334192 L 63.493937 212.334192 C 57.619498 212.334192 52.869951 207.584645 52.869951 201.710206 L 52.869951 -115.759477 C 52.869951 -121.633916 57.619498 -126.383462 63.493937 -126.383462 Z M 63.493937 -126.383462 " transform="matrix(0.031253,0,0,0.031253,0,6.719392)"/>
<path style=" stroke:none;fill-rule:nonzero;fill:rgb(100%,100%,100%);fill-opacity:0.0784314;" d="M 1.984375 2.769531 C 1.800781 2.769531 1.652344 2.917969 1.652344 3.101562 L 1.652344 5.785156 C 5.347656 5.324219 9.199219 5.078125 13.164062 5.078125 C 13.519531 5.078125 13.871094 5.082031 14.222656 5.085938 L 14.222656 3.101562 C 14.222656 2.917969 14.074219 2.769531 13.890625 2.769531 Z M 1.984375 2.769531 "/>
<path style=" stroke:none;fill-rule:nonzero;fill:url(#linear3);" d="M 2.316406 3.089844 C 2.125 3.089844 1.972656 3.242188 1.972656 3.433594 L 1.972656 7.722656 C 1.972656 7.917969 2.140625 8.078125 2.339844 8.0625 C 4.808594 7.890625 6.773438 5.925781 6.945312 3.457031 C 6.960938 3.257812 6.800781 3.089844 6.605469 3.089844 Z M 2.316406 3.089844 "/>
<path style=" stroke:none;fill-rule:nonzero;fill:rgb(100%,100%,100%);fill-opacity:0.588235;" d="M 2.316406 3.089844 C 2.125 3.089844 1.972656 3.242188 1.972656 3.433594 L 1.972656 3.53125 C 1.972656 3.34375 2.125 3.191406 2.316406 3.191406 L 6.605469 3.191406 C 6.777344 3.191406 6.921875 3.320312 6.945312 3.484375 C 6.945312 3.476562 6.945312 3.464844 6.945312 3.457031 C 6.960938 3.257812 6.800781 3.089844 6.605469 3.089844 Z M 2.316406 3.089844 "/>
<path style=" stroke:none;fill-rule:nonzero;fill:rgb(0%,0%,0%);fill-opacity:0.235294;" d="M 6.941406 3.507812 C 6.746094 5.953125 4.789062 7.890625 2.339844 8.0625 C 2.140625 8.078125 1.972656 7.917969 1.972656 7.722656 L 1.972656 7.851562 C 1.972656 8.050781 2.140625 8.207031 2.339844 8.195312 C 4.808594 8.019531 6.773438 6.054688 6.945312 3.585938 C 6.949219 3.558594 6.945312 3.53125 6.941406 3.507812 Z M 6.941406 3.507812 "/>
<path style="fill:none;stroke-width:3;stroke-linecap:round;stroke-linejoin:round;stroke:rgb(12.941177%,12.941177%,12.941177%);stroke-opacity:1;stroke-miterlimit:4;" d="M 74.117922 -116.134441 C 67.993507 -116.134441 63.118972 -111.259907 63.118972 -105.135492 L 63.118972 32.101403 C 63.118972 38.350806 68.493459 43.475317 74.86785 42.975365 C 153.860307 37.47589 216.729303 -25.393107 222.228778 -104.385563 C 222.72873 -110.759954 217.60422 -116.134441 211.354817 -116.134441 Z M 74.117922 -116.134441 " transform="matrix(0.031253,0,0,0.031253,0,6.719392)"/>
<path style=" stroke:none;fill-rule:nonzero;fill:url(#linear4);" d="M 13.5625 13.023438 C 13.75 13.023438 13.902344 12.871094 13.902344 12.683594 L 13.902344 8.394531 C 13.902344 8.195312 13.734375 8.039062 13.539062 8.050781 C 11.070312 8.222656 9.101562 10.191406 8.929688 12.65625 C 8.917969 12.855469 9.074219 13.023438 9.273438 13.023438 Z M 13.5625 13.023438 "/>
<path style=" stroke:none;fill-rule:nonzero;fill:rgb(100%,100%,100%);fill-opacity:0.588235;" d="M 13.554688 8.050781 C 13.550781 8.050781 13.542969 8.050781 13.539062 8.050781 C 11.070312 8.222656 9.101562 10.191406 8.929688 12.65625 C 8.929688 12.683594 8.929688 12.707031 8.933594 12.730469 C 9.121094 10.277344 11.078125 8.324219 13.539062 8.152344 C 13.734375 8.140625 13.902344 8.296875 13.902344 8.496094 L 13.902344 8.394531 C 13.902344 8.199219 13.746094 8.046875 13.554688 8.050781 Z M 13.554688 8.050781 "/>
<path style=" stroke:none;fill-rule:nonzero;fill:rgb(0%,0%,0%);fill-opacity:0.235294;" d="M 13.902344 12.683594 C 13.902344 12.871094 13.75 13.023438 13.5625 13.023438 L 9.273438 13.023438 C 9.101562 13.023438 8.960938 12.898438 8.933594 12.734375 C 8.933594 12.75 8.933594 12.765625 8.929688 12.78125 C 8.917969 12.980469 9.074219 13.148438 9.273438 13.148438 L 13.5625 13.148438 C 13.75 13.148438 13.902344 12.996094 13.902344 12.804688 Z M 13.902344 12.683594 "/>
<path style="fill:none;stroke-width:3;stroke-linecap:round;stroke-linejoin:round;stroke:rgb(12.941177%,12.941177%,12.941177%);stroke-opacity:1;stroke-miterlimit:4;" d="M 433.958559 201.710206 C 439.957986 201.710206 444.832521 196.835672 444.832521 190.836245 L 444.832521 53.59935 C 444.832521 47.224959 439.458034 42.225436 433.208631 42.6004 C 354.216174 48.099875 291.22219 111.09386 285.722715 189.961328 C 285.347751 196.335719 290.347273 201.710206 296.721664 201.710206 Z M 433.958559 201.710206 " transform="matrix(0.031253,0,0,0.031253,0,6.719392)"/>
</g>
</svg>
